images/ico-bicro-communaute-support.svg

<svg xmlns="http://www.w3.org/2000/svg" width="24" height="24" fill="none" viewBox="0 0 24 24"><circle cx="16.8" cy="7.20001" r="6" fill="#18a47d"/><path fill="#000638" d="M16.9104 10.24H17.76C18.1844 10.24 18.5913 10.4086 18.8914 10.7086C19.1914 11.0087 19.36 11.4157 19.36 11.84V15.04C19.36 15.4644 19.1914 15.8713 18.8914 16.1714C18.5913 16.4714 18.1844 16.64 17.76 16.64H16.9104C16.7154 18.1866 15.9626 19.6089 14.7934 20.64C13.6242 21.6711 12.1189 22.24 10.56 22.24V20.64C11.833 20.64 13.0539 20.1343 13.9541 19.2341C14.8543 18.3339 15.36 17.113 15.36 15.84V11.04C15.36 9.76697 14.8543 8.54607 13.9541 7.6459C13.0539 6.74572 11.833 6.24001 10.56 6.24001C9.28697 6.24001 8.06607 6.74572 7.1659 7.6459C6.26572 8.54607 5.76001 9.76697 5.76001 11.04V16.64H3.36001C2.93566 16.64 2.5287 16.4714 2.22864 16.1714C1.92858 15.8713 1.76001 15.4644 1.76001 15.04V11.84C1.76001 11.4157 1.92858 11.0087 2.22864 10.7086C2.5287 10.4086 2.93566 10.24 3.36001 10.24H4.20961C4.40483 8.69352 5.15767 7.27143 6.32687 6.24055C7.49606 5.20967 9.00125 4.64087 10.56 4.64087C12.1188 4.64087 13.624 5.20967 14.7932 6.24055C15.9623 7.27143 16.7152 8.69352 16.9104 10.24ZM3.36001 11.84V15.04H4.16001V11.84H3.36001ZM16.96 11.84V15.04H17.76V11.84H16.96ZM7.16801 16.468L8.01601 15.1112C8.77847 15.5888 9.6603 15.8415 10.56 15.84C11.4597 15.8415 12.3415 15.5888 13.104 15.1112L13.952 16.468C12.9354 17.1049 11.7596 17.4418 10.56 17.44C9.36038 17.4418 8.1846 17.1049 7.16801 16.468Z"/></svg>

<svg xmlns="http://www.w3.org/2000/svg" width="24" height="24" fill="none" viewBox="0 0 24 24"><circle cx="16.8" cy="7.20001" r="6" fill="#18A47D"/><path fill="#000638" d="M16.91 10.24h.85a1.6 1.6 0 0 1 1.6 1.6v3.2a1.6 1.6 0 0 1-1.6 1.6h-.85a6.4 6.4 0 0 1-6.35 5.6v-1.6a4.8 4.8 0 0 0 4.8-4.8v-4.8a4.8 4.8 0 1 0-9.6 0v5.6h-2.4a1.6 1.6 0 0 1-1.6-1.6v-3.2a1.6 1.6 0 0 1 1.6-1.6h.85a6.4 6.4 0 0 1 12.7 0m-13.55 1.6v3.2h.8v-3.2zm13.6 0v3.2h.8v-3.2zm-9.792 4.628.848-1.357c.762.478 1.644.73 2.544.729a4.77 4.77 0 0 0 2.544-.729l.848 1.357a6.37 6.37 0 0 1-3.392.972 6.37 6.37 0 0 1-3.392-.972"/></svg>
